package/converter/svg/solid/weight-scale.svg

<svg xmlns="http://www.w3.org/2000/svg" viewBox="0 0 512 512"><!-- Font Awesome Pro 6.0.0-alpha2 by @fontawesome - https://fontawesome.com License - https://fontawesome.com/license (Commercial License) --><path d="M310.25 97.25C302.25 93.75 292.75 97.5 289.25 105.75L255.75 184C233.75 184.25 216 202 216 224C216 246.125 233.875 264 256 264S296 246.125 296 224C296 213.5 291.75 204 285 196.875L318.75 118.25C322.25 110.125 318.375 100.75 310.25 97.25ZM448 64H391.773C359.494 24.914 310.66 0 256 0S152.506 24.914 120.227 64H64C28.75 64 0 92.75 0 128V448C0 483.25 28.75 512 64 512H448C483.25 512 512 483.25 512 448V128C512 92.75 483.25 64 448 64ZM256 304C185.422 304 128 246.578 128 176S185.422 48 256 48C326.58 48 384 105.422 384 176S326.58 304 256 304Z"/></svg>

<svg xmlns="http://www.w3.org/2000/svg" viewBox="0 0 512 512"><!--! Font Awesome Pro 6.6.0 by @fontawesome - https://fontawesome.com License - https://fontawesome.com/license (Commercial License) Copyright 2024 Fonticons, Inc. --><path d="M128 176a128 128 0 1 1 256 0 128 128 0 1 1 -256 0zM391.8 64C359.5 24.9 310.7 0 256 0S152.5 24.9 120.2 64L64 64C28.7 64 0 92.7 0 128L0 448c0 35.3 28.7 64 64 64l384 0c35.3 0 64-28.7 64-64l0-320c0-35.3-28.7-64-64-64l-56.2 0zM296 224c0-10.6-4.1-20.2-10.9-27.4l33.6-78.3c3.5-8.1-.3-17.5-8.4-21s-17.5 .3-21 8.4L255.7 184c-22 .1-39.7 18-39.7 40c0 22.1 17.9 40 40 40s40-17.9 40-40z"/></svg>
